X:251
T:The Wild Turkey Reel
R:reel
C:Bruce Osborne - June 2002
Z:abc by bosborne@kos.net
M:2/4
L:1/8
K:Bb
F/E/|D/B,/A,/B,/ D/B,/D/F/|B/F/B/d/ f/d/B/d/|c/B/c/d/ e/g/f/e/|d/B/A/G/ FF/E/|\
D/B,/A,/B,/ D/B,/D/F/|B/F/B/d/ f/d/B/d/|c/B/c/d/ e/c/A/c/|B/A/B/c/ B:|
|:D/E/|F/B/A/B/ F/B/A/B/|f/B/g/B/ f/B/A/B/|c/F/d/F/ e/F/d/F/|c/B/A/G/ FD/E/|\
F/B/A/B/ F/B/A/B/|f/B/g/B/ f/B/A/B/|c/F/d/F/ e/c/A/c/|B/A/B/c/ B:|
